X: 1
T: The Compleat Gardner
T: 8x32J 3C (RSCDS Graded 3)
T: 1,2 S&trn; 1CRH cast; CrnrPassTurn; circle
P: David Vandegrift - The Grand Marshall
C: by Muriel Johnstone
C: arr. Barbara McOwen 12-2014
R: jig
M: 6/8
L: 1/8
K: Dm
|: A,|"Dm"DEF "A7"E2 A|"Dm"A,2 A FED|"Dm"d3 "Bb˚"e2 d|"A7"^cAA eAA|"Dm"d^cd D2 =c|"Gm"BGG gdB|"A"A2 a ge^c|"Dm"d3 d2 :|
f|"Dm"d2 d "A7"^c=Bc|"Dm"dAF DFA|"Dm"d2 d "C7"=cdc|"F"AFF cFF|"Dm"d^cd "C7"E2 =c|"F"AFF fcA|"Gm"G2 g "A7"age|"Dm"fdd d2 f||
"Dm"d2 d "A7"^c=Bc|"Dm"dAF DFA|"Dm"d2 d "C7"ede|"F"f2 f "D7"^fef|"Gm"gdd bgg|"Dm"aga =fed|"A7"A2 a ge^c|"Dm"d3 d2 |]
